X: 5
T: Paddy O'Rafferty
R: jig
M: 6/8
L: 1/8
K: Amaj
EAc EAd|EAc BAF|EAc EAd|cBA ~F3|
EAc EAd|~c3 efg|aec BAB|1 cAA AGF:|2 cAA Acd||
|:~e3 fdf|~e3 ecd|~e3 fga|~A3 AFE|
~e3 fdf|~e3 efg|aec BAB|1 cAA Acd:|2 cAA AGF||


Tune 741	Setting 4082

